images/gtc.svg

<svg height="250" viewBox="0 0 250 250" width="250" xmlns="http://www.w3.org/2000/svg"><path d="m125 250c68.972656 0 125-55.90625 125-124.921875-.15625-69.171875-56.027344-125.078125-125-125.078125-69.128906 0-125 55.90625-125 124.921875s55.871094 125.078125 125 125.078125zm0 0" fill="#02e2ac"/><path d="m174.433594 166.503906-8.664063-6.636718c6.421875-9.199219 10.007813-20.207032 10.007813-31.214844.148437-11.914063-3.734375-23.675782-11.054688-33.175782l9.710938-9.199218c1.195312-1.054688 1.195312-2.863282.148437-4.070313l-2.390625-2.414062c-12.097656-12.363281-28.527344-19.601563-45.703125-20.207031v-10.101563c.148438-5.882813-8.960937-5.882813-8.960937 0v10.40625c-4.035156.300781-8.066406 1.203125-11.949219 2.261719v-12.820313c.148437-5.878906-8.960937-5.878906-8.960937 0v16.136719h-.152344c-13.738282 6.484375-25.390625 17.492188-32.261719 31.515625-7.019531 13.722656-9.257813 29.707031-6.273437 44.9375 3.136718 15.230469 11.203124 28.953125 23.003906 39.058594 11.800781 9.953125 26.734375 15.53125 42.121094 15.984375l49.734374.300781c1.496094 0 2.6875-1.207031 2.6875-2.714844v-25.332031c0-1.359375-.296874-2.261719-1.042968-2.714844zm-33.308594-49.160156 14.191406-12.96875c9.707032 13.722656 10.003906 33.476562.148438 47.5l-15.085938-11.609375c2.539063-3.320313 3.882813-7.089844 4.03125-11.3125-.148437-4.070313-1.042968-7.992187-3.285156-11.609375zm22.105469 66.046875c0 .753906-.597657 1.359375-1.34375 1.359375l-37.789063-.152344c-12.246094-.148437-24.195312-4.222656-33.902344-11.609375-9.710937-7.542969-16.730468-18.246093-19.71875-30.160156-6.570312-23.976563 4.632813-51.121094 26.140626-63.183594l.445312-.152343v19.453124c-.148438 5.882813 8.964844 5.882813 8.964844 0v-23.828124c17.175781-6.03125 37.488281-3.015626 51.828125 8.296874.746093.453126.746093 1.507813.148437 2.109376l-26.289062 24.128906c-5.078125-2.113282-10.902344-2.113282-15.832032.300781-7.914062 3.621094-12.992187 12.515625-11.5 21.261719.296876 2.867187 1.34375 5.582031 2.835938 7.992187 1.496094 2.566407 3.585938 4.523438 5.976562 6.183594 4.777344 3.167969 10.902344 4.070313 16.429688 2.414063l33.15625 25.484374c.300781.300782.449219.753907.449219 1.207032zm-31.066407-55.039063c0 1.507813-.449218 3.164063-1.34375 4.371094-.898437 1.359375-2.09375 2.261719-3.585937 3.015625-1.492187.605469-3.136719.753907-4.480469.304688-1.492187-.304688-2.835937-1.058594-4.03125-2.113281-1.046875-1.054688-1.792968-2.5625-2.09375-4.070313-.296875-1.507813-.148437-3.167969.449219-4.523437.597656-1.507813 1.644531-2.566407 2.839844-3.621094 3.136719-2.109375 7.316406-1.65625 10.003906 1.054687 1.34375 1.359375 2.242187 3.46875 2.242187 5.582031zm0 0" fill="#0e0333" fill-rule="evenodd"/></svg>

<svg xmlns="http://www.w3.org/2000/svg" xmlns:xlink="http://www.w3.org/1999/xlink" width="250px" height="250px" viewBox="0 0 250 250" version="1.1">
<g id="surface1">
<path style=" stroke:none;fill-rule:nonzero;fill:rgb(0.784314%,88.627452%,67.450982%);fill-opacity:1;" d="M 125 250 C 193.972656 250 250 194.09375 250 125.078125 C 249.84375 55.90625 193.972656 0 125 0 C 55.871094 0 0 55.90625 0 124.921875 C 0 193.9375 55.871094 250 125 250 Z M 125 250 "/>
<path style=" stroke:none;fill-rule:evenodd;fill:rgb(5.490196%,1.176471%,20%);fill-opacity:1;" d="M 174.433594 166.503906 L 165.769531 159.867188 C 172.191406 150.667969 175.777344 139.660156 175.777344 128.652344 C 175.925781 116.738281 172.042969 104.976562 164.722656 95.476562 L 174.433594 86.277344 C 175.628906 85.222656 175.628906 83.414062 174.582031 82.207031 L 172.191406 79.792969 C 160.09375 67.429688 143.664062 60.191406 126.488281 59.585938 L 126.488281 49.484375 C 126.636719 43.601562 117.527344 43.601562 117.527344 49.484375 L 117.527344 59.890625 C 113.492188 60.191406 109.460938 61.09375 105.578125 62.152344 L 105.578125 49.332031 C 105.726562 43.453125 96.617188 43.453125 96.617188 49.332031 L 96.617188 65.46875 L 96.464844 65.46875 C 82.726562 71.953125 71.074219 82.960938 64.203125 96.984375 C 57.183594 110.707031 54.945312 126.691406 57.929688 141.921875 C 61.066406 157.152344 69.132812 170.875 80.933594 180.980469 C 92.734375 190.933594 107.667969 196.511719 123.054688 196.964844 L 172.789062 197.265625 C 174.285156 197.265625 175.476562 196.058594 175.476562 194.550781 L 175.476562 169.21875 C 175.476562 167.859375 175.179688 166.957031 174.433594 166.503906 Z M 141.125 117.34375 L 155.316406 104.375 C 165.023438 118.097656 165.320312 137.851562 155.464844 151.875 L 140.378906 140.265625 C 142.917969 136.945312 144.261719 133.175781 144.410156 128.953125 C 144.261719 124.882812 143.367188 120.960938 141.125 117.34375 Z M 163.230469 183.390625 C 163.230469 184.144531 162.632812 184.75 161.886719 184.75 L 124.097656 184.597656 C 111.851562 184.449219 99.902344 180.375 90.195312 172.988281 C 80.484375 165.445312 73.464844 154.742188 70.476562 142.828125 C 63.90625 118.851562 75.109375 91.707031 96.617188 79.644531 L 97.0625 79.492188 L 97.0625 98.945312 C 96.914062 104.828125 106.027344 104.828125 106.027344 98.945312 L 106.027344 75.117188 C 123.203125 69.085938 143.515625 72.101562 157.855469 83.414062 C 158.601562 83.867188 158.601562 84.921875 158.003906 85.523438 L 131.714844 109.652344 C 126.636719 107.539062 120.8125 107.539062 115.882812 109.953125 C 107.96875 113.574219 102.890625 122.46875 104.382812 131.214844 C 104.679688 134.082031 105.726562 136.796875 107.21875 139.207031 C 108.714844 141.773438 110.804688 143.730469 113.195312 145.390625 C 117.972656 148.558594 124.097656 149.460938 129.625 147.804688 L 162.78125 173.289062 C 163.082031 173.589844 163.230469 174.042969 163.230469 174.496094 Z M 132.164062 128.351562 C 132.164062 129.859375 131.714844 131.515625 130.820312 132.722656 C 129.921875 134.082031 128.726562 134.984375 127.234375 135.738281 C 125.742188 136.34375 124.097656 136.492188 122.753906 136.042969 C 121.261719 135.738281 119.917969 134.984375 118.722656 133.929688 C 117.675781 132.875 116.929688 131.367188 116.628906 129.859375 C 116.332031 128.351562 116.480469 126.691406 117.078125 125.335938 C 117.675781 123.828125 118.722656 122.769531 119.917969 121.714844 C 123.054688 119.605469 127.234375 120.058594 129.921875 122.769531 C 131.265625 124.128906 132.164062 126.238281 132.164062 128.351562 Z M 132.164062 128.351562 "/>
</g>
</svg>
